!!!COM: Macque, Giovanni de
!!!CDT:
!!!PTL: Il secondo libro de madrigali a sei voci
!!!PPP: Venice
!!!PPR: Angelo Gardano
!!!PDT: 1589
!!!PUB-format:
!!!RISM: M 90
!!!rime: 615
!!!OTL: Al tuo vago pallore
!!!AGN: Madrigal
!!!SCT: Trm0615c
!!!SCA: Trm0615c
!!!original-voices: 6
!!!extant-voices: 1
!!!complete: N
!!!final: G?
**kern	**text
*part1	*part1
*staff1	*staff1
*I"Quinto	*
*I'V	*
*oclefC4	*
*clefGv2	*
*k[]	*
*omet(C|)	*
*M2/1	*
=1	=1
1d	Al
2e	tuo
[2e	va-
=2	=2
4e]	.
4e	-go
2d	pal-
1d	-lo-
=3	=3
1d	-re
1r	.
=4	=4
0r	.
=5	=5
2r	.
2B	La
1A	ro-
=6	=6
1B	-sa,
1e	<La
=7	=7
2A	ro-
2e	-sa>
2r	.
2e	il
=8	=8
4f	pre-
4d	-gio
2c#X	ce-
2d	-de
2r	.
=9	=9
2r	.
4r	.
4d	Che
4d	per
4B	lo
2d	scor-
=10	=10
2G	-no,
2r	.
2r	.
2B	Che
=11	=11
4B	per
4e	lo
2d	scor-
1e	-no,
=12	=12
0r	.
=13	=13
4r	.
4F	hor
4.G	più ar-
8G	-ros-
4A	-sir
4d	si
2c#X	ve-
=14	=14
4d	-de,
4A	hor
4.c	più ar-
8c	-ros-
4c	-sir
4G	si
2A	ve-
=15	=15
1A	-de.
2G	Que-
4.G	-st'è 'l
8G	co-
=16	=16
4G	-lor
4G	ch'a-
2A	-mo-
4G	-re
4d	Di
4d	sua
4B	man
=17	=17
4d	tin-
4e	-g'e
4.d	se-
8c	.
4B	.
2c	.
4B	.
=18	=18
1c	-gna,
1r	.
=19	=19
1r	.
2r	.
2c	Né
=20	=20
4.f	van-
8f	-n'i
4f	suoi
4e	guer-
2.d	-rier
4e	sot-
=21	=21
4d	-t'al-
4B	-tr'in-
4d	-se-
4G	-gna.
1r	.
=22	=22
2r	.
4r	.
4A	Che
1B	più?
=23	=23
4r	.
4.e	l'al-
8e	-ba ho-
4d	-mai
4c#X	sde-
4d	-gna
2B-X	L'o-
=24	=24
2A	-stro
2r	.
1r	.
=25	=25
4r	.
8G	e 'n-
8A	-va-
4B	-ghi-
4G	-sce il
4c	ciel
4e	di
[2d	tue
=26	=26
4d]	.
4B	vi-
2B	-o-
1A	-le,
=27	=27
4r	.
8A	e 'n-
8G	-va-
4F	-ghi-
4D	-sce il
1A	ciel
=28	=28
2r	.
4r	.
4d	di
4c#X	tue
4c#i	vi-
2d	-o-
=29	=29
2A	-le,
4r	.
4d	di
4e	tue
4e	vi-
2f	-o-
=30	=30
2e	-le
2A	E
4d	te-
4B	-co
2c	bra-
=31	=31
2G	-ma,
2A	E
4B	te-
4c	-co
2A	bra-
=32	=32
2c	-ma
4r	.
4c	im-
4.B	-pal-
8B	-li-
4e	-dir-
4E	-s'il
=33	=33
2G	so-
4C	-le,
4c	im-
4.B	-pal-
8B	-li-
4e	-dir-
4E	-s'il
=34	=34
4G	so-
4G	-le,
4r	.
4E	il
1D	so-
=35	=35
1D	-le,
1r	.
=36	=36
2r	.
2d	E
4d	te-
4e	-co
2c	bra-
=37	=37
1c	-ma
2r	.
2c	im-
=38	=38
4.B	-pal-
8B	-li-
4e	-dir-
4E	-s'il
2G	so-
2C	-le,
=39	=39
4r	.
4G	im-
4.c	-pal-
8c	-li-
4A	-dir-
4G	-s'il
2A	so-
=40	=40
0Gl	-le.
==	==
*-	*-
!!!YEM:	Giovanni de Macque, “Al tuo vago pallore,” 1589 (Trm0615c; Nov 2017) Tasso in Music Project (http://www.tassomusic.org) Copyright 2016 Emiliano Ricciardi
!!!RDF**kern: i = editorial accidental
!!!RDF**kern: l = terminal long
!!!ENC: Emiliano Ricciardi
!!!END: 2018
!!!EED: Deutsch, Catherine
!!!EEV: 2018/10/28
!!!YEC: Copyright 2018 Emiliano Ricciardi, All Rights Reserved
!!!ONB: Translated from MusicXML on 2018/10/28 and edited by Craig Stuart Sapp
